svg/u1faa0.svg

<svg viewBox="0 0 128 128" xmlns="http://www.w3.org/2000/svg">
  <defs>
    <radialGradient id="SVGID_1_" cx="39.3713" cy="79.962" gradientUnits="userSpaceOnUse" r="44.2933">
      <stop offset="0.4687" stop-color="#ED6C66"/>
      <stop offset="1" stop-color="#BB303D"/>
    </radialGradient>
  </defs>
  <path d="M59.72,95.31 C61.29,87.43 58.96,79.62 52.9,73.55 C46.84,67.48 38.09,66.3 30.2,67.86 C22.95,69.3 20.07,74.13 10.52,73.55 C10.52,73.55 0.44,87.28 19.45,107 C39.16,126.01 52.9,115.93 52.9,115.93 C52.32,106.37 58.28,102.56 59.72,95.31 Z" fill="url(#SVGID_1_)"/>
  <path d="M56.445,70.572 C61.314,75.142 62.435,81.856 58.95,85.569 C55.465,89.281 48.693,88.586 43.825,84.017 C38.957,79.447 37.835,72.733 41.32,69.02 C44.805,65.307 51.577,66.002 56.445,70.572 Z" fill="#B22D2D"/>
  <path d="M56.241,70.794 C60.94,75.205 62.442,81.239 59.596,84.271 C56.75,87.303 50.633,86.185 45.934,81.774 C41.235,77.363 39.733,71.329 42.579,68.297 C45.425,65.265 51.542,66.383 56.241,70.794 Z" fill="#FF8480"/>
  <path d="M58.23,78.71 L122.24,16.47 C124.44,14.27 124.95,9.54 121.61,6.19 C118.23,2.81 112.88,4.92 110.91,6.89 L48.49,70.79 C46.52,72.76 47.45,76.16 49.8,78.25 C53.18,81.26 57.24,79.7 58.23,78.71 Z" fill="#A06841"/>
  <path d="M54.14,107.81 C52.13,110.34 52.48,114.65 52.48,114.65 C39.96,119.59 27.07,109.51 21.36,104.25 C16.72,99.98 6.48,84.45 12.61,73.78 C12.61,73.78 17.31,74.08 20,72.01 C20,72.01 16.31,68.93 12.56,69.04 C11.26,69.08 6.64,68.26 4.79,75.09 C4.06,77.77 0.68,92.24 16.67,110.22 C34.02,127.27 47.53,123.39 50.11,122.82 C56.41,121.42 56.88,116.89 57.08,115.26 C57.66,110.82 54.14,107.81 54.14,107.81 Z" fill="#FF8480"/>
  <path d="M36.93,74.82 C38.27,76.91 38.14,79.96 36.34,81.67 C35.14,82.81 33.46,83.24 31.92,83.87 C30.02,84.65 28.28,85.79 26.34,86.46 C24.4,87.13 22.11,87.27 20.42,86.11 C16.6,83.51 17.38,78.8 20.92,75.24 C23.15,73 27.22,71.69 30.24,71.6 C32.79,71.53 35.5,72.61 36.93,74.82 Z" fill="#FF9F9F" opacity="0.63"/>
  <path d="M66.58,70.59 C63.49,71.92 58.08,74.04 54.41,74.23 C51.08,74.41 48.91,72.99 47.73,71.88 C46.86,73.86 47.83,76.5 49.79,78.24 C53.17,81.25 57.24,79.69 58.23,78.7 L66.58,70.59 Z" fill="#874D36"/>
</svg>

<svg viewBox="0 0 128 128" xmlns="http://www.w3.org/2000/svg">
  <g>
    <radialGradient id="SVGID_1_" cx="39.3713" cy="79.962" gradientUnits="userSpaceOnUse" r="44.2933">
      <stop offset="0.4687" stop-color="#ED6C66"/>
      <stop offset="1" stop-color="#BB303D"/>
    </radialGradient>
    <path d="M59.72,95.31c1.57-7.88-0.76-15.69-6.82-21.76S38.09,66.3,30.2,67.86 c-7.25,1.44-10.13,6.27-19.68,5.69c0,0-10.08,13.73,8.93,33.45c19.71,19.01,33.45,8.93,33.45,8.93 C52.32,106.37,58.28,102.56,59.72,95.31z" fill="url(#SVGID_1_)"/>
    <ellipse cx="50.14" cy="77.29" rx="9.22" ry="12.09" fill="#B22D2D" transform="matrix(0.6844 -0.7291 0.7291 0.6844 -40.5329 60.9541)"/>
    <ellipse cx="51.09" cy="76.28" rx="7.53" ry="11.67" fill="#FF8480" transform="matrix(0.6844 -0.7291 0.7291 0.6844 -39.4942 61.3277)"/>
    <path d="M58.23,78.71l64.01-62.24c2.2-2.2,2.71-6.93-0.63-10.28c-3.38-3.38-8.73-1.27-10.7,0.7l-62.42,63.9 c-1.97,1.97-1.04,5.37,1.31,7.46C53.18,81.26,57.24,79.7,58.23,78.71z" fill="#A06841"/>
    <path d="M54.14,107.81c-2.01,2.53-1.66,6.84-1.66,6.84c-12.52,4.94-25.41-5.14-31.12-10.4 c-4.64-4.27-14.88-19.8-8.75-30.47c0,0,4.7,0.3,7.39-1.77c0,0-3.69-3.08-7.44-2.97c-1.3,0.04-5.92-0.78-7.77,6.05 c-0.73,2.68-4.11,17.15,11.88,35.13c17.35,17.05,30.86,13.17,33.44,12.6c6.3-1.4,6.77-5.93,6.97-7.56 C57.66,110.82,54.14,107.81,54.14,107.81z" fill="#FF8480"/>
    <path d="M36.93,74.82c1.34,2.09,1.21,5.14-0.59,6.85c-1.2,1.14-2.88,1.57-4.42,2.2 c-1.9,0.78-3.64,1.92-5.58,2.59c-1.94,0.67-4.23,0.81-5.92-0.35c-3.82-2.6-3.04-7.31,0.5-10.87c2.23-2.24,6.3-3.55,9.32-3.64 C32.79,71.53,35.5,72.61,36.93,74.82z" opacity="0.63" fill="#FF9F9F"/>
    <path d="M66.58,70.59c-3.09,1.33-8.5,3.45-12.17,3.64c-3.33,0.18-5.5-1.24-6.68-2.35 c-0.87,1.98,0.1,4.62,2.06,6.36c3.38,3.01,7.45,1.45,8.44,0.46L66.58,70.59z" fill="#874D36"/>
  </g>
</svg>
